X: 717
T: Ey Mehlika Ey Gül Beden
C: İsmail Hakkı Bey
O: Turkey
F: http://compmusic.upf.edu/node/140
N: hicaz--sarki--semai--ey_mehlika--muallim_ismail_hakki_bey
N: makam= hicaz
N: form= sarki
N: usul= semai = 3/4
M: 3/4
L: 1/16
K: C _7/8B ^f ^c 
Q: 1/4=150
%%MIDI tuningsystem comma53
A2c2 e2d2 e2c2  | A2c2 e2d2 e2c2  | A2c2 e2d2 e2=f2  | a12  | \
w:  ARANAĞME  |   |   |   | 
g4 =f4 e4  | 
w:   | 
d4 c4 d4  | e2d2 e2=f2 e2d2  | c2d2 c2B2 A4  | \
w:   |   |   | 
A2c2 e2d2 e2c2  | A2c2 e2d2 e2c2  | 
w:   |   | 
A2c2 e2d2 e2=f2  | a12  | g4 =f4 e4  | d4 c4 B4  | \
w:   |   |   |   | 
A4 c4 e4  | A12  | A2c2 e2d2 e2c2  | 
w:   |   |  ARANAĞME  | 
A2c2 e2d2 e2c2  | A2c2 e2d2 e2=f2  | a12  | \
w:   |   |   | 
g4 =f4 e4  | d4 c4 d4  | e2d2 e2=f2 e2d2  | 
w:   |   |   | 
c2d2 c2B2 A4  | A2c2 e2d2 e2c2  | A2c2 e2d2 e2c2  | \
w:   |   |   | 
A2c2 e2d2 e2=f2  | 
w:   | 
a12  | g4 =f4 e4  | d4 c4 B4  | A4 c4 e4  | A12  | A12  | \
w:   |   |   |   |   |  Ey   | 
d8 e4  | =f12  | =f6e2 d4  | d12  | c8 d4  | 
w:  meh li  |  ka   |   |  ey   |  gül  be  | 
e12  | c4 B4 A4  | A12  | d8 e4  | =f12  | =f6e2 d4  | d12  | \
w:  den    |  SAZ  |  Ey   |  meh li  |  ka   |   |  ey   | 
c8 d4  | e12  | e8 z4  | d12  | f8 d4  | f12  | 
w:  gül  be  |  den    |  SAZ  |  Mahv_  |  ol du   |  cis  | 
g4 f4 e4  | g4 f4 e4  | d4 c4 d4  | e12  | \
w:   |  mim   |  nâ *  le  |  den    | 
e8 z4  | d12  | d8 e4  | c12  | d4 c4 B4  | A4 B4 c4  | 
w:   |  Mahv_  |  ol du   |  cis  |   |  mim   | 
d4 c4 B4  | A12  | A8 z4  | a12  | a8 =b4  | a8 g4  | \
w:  nâ *  le  |  den    |   |  Bu   |  il ti  |  fat  | 
f4 e4 d4  | f8 d4  | f8 g4  | a12  | f4 e4 d4  | 
w:   |  sız  |  lık  ne  |  den    |  SAZ  | 
a12  | a8 =b4  | a8 g4  | f4 e4 d4  | f4 e4 d4  | \
w:  Bu   |  il ti  |  fat  |   |  sız  | 
c4 d4 e4  | d12  | d8 z4  | d12  | f8 d4  | f12  | 
w:  lık  *  ne  |  den    |   |  Mahv_  |  ol du   |  cis  | 
g4 f4 e4  | g4 f4 e4  | d4 c4 d4  | e12  | \
w:   |  mim   |  nâ *  le  |  den    | 
e8 z4  | d12  | d8 e4  | c12  | d4 c4 B4  | A4 B4 c4  | 
w:   |  Mahv_  |  ol du   |  cis  |   |  mim   | 
d4 c4 B4  | A12  | A8 z4  | |


